X:17
T:Gospel Verse, Ascension Sunday
M:6/8
L:1/8
K:F min
V:1 clef=treble
[V:1] (FA)B (cB)A | [M:9/8] (BA)G AGE F3 | [M:6/8] (FA)B (cB)A | (BAG) F3 | FFG FEF | (AGF C3) | GAG F3 ||
w: Go - and teach - all | na - tions, says - the Lord. | I - am with - you | al - - ways, | un-til the end of the | world - - - | Al-le-lu-ia. ||

